packages/core/src/svgs/tokens/mono/LINK.svg

<svg width="24" height="24" viewBox="0 0 24 24" fill="none" xmlns="http://www.w3.org/2000/svg">
<path d="M12.0006 2L20.0373 6.81402V16.5568L10.8524 22V20.628L3.98216 16.5212L3.96265 6.87143L12.0006 2ZM12.0104 18.6453L17.7411 15.2514V8.11712L12.0006 4.68197L6.26002 8.16189V15.217L12.0104 18.6453Z" fill="white"/>
</svg>

<svg xmlns="http://www.w3.org/2000/svg" width="24" height="24" fill="none" viewBox="0 0 24 24">
    <path fill="#fff" d="m12 2 8.037 4.814v9.743L10.852 22v-1.372l-6.87-4.107-.02-9.65zm.01 16.645 5.731-3.394V8.117l-5.74-3.435-5.741 3.48v7.055z"/>
</svg>
